office-building-marker.svg

<svg fill="currentColor" viewBox="0 0 24 24"><path d="M15.19 21C14.12 19.43 13 17.36 13 15.5c0-1.83.96-3.5 2.4-4.5H15V9h2v1.23c.5-.14 1-.23 1.5-.23.17 0 .34 0 .5.03V3H5v18h6v-3.5h2V21zM15 5h2v2h-2zM9 19H7v-2h2zm0-4H7v-2h2zm0-4H7V9h2zm0-4H7V5h2zm2-2h2v2h-2zm0 4h2v2h-2zm0 6v-2h2v2zm7.5-3c-1.9 0-3.5 1.61-3.5 3.5 0 2.61 3.5 6.5 3.5 6.5s3.5-3.89 3.5-6.5c0-1.89-1.6-3.5-3.5-3.5m0 4.81c-.7 0-1.2-.6-1.2-1.2 0-.7.6-1.2 1.2-1.2s1.2.59 1.2 1.2c.1.6-.5 1.2-1.2 1.2"/></svg>

<svg  viewBox="0 0 24 24" fill="currentColor"><path  d="M15.19 21C14.12 19.43 13 17.36 13 15.5C13 13.67 13.96 12 15.4 11H15V9H17V10.23C17.5 10.09 18 10 18.5 10C18.67 10 18.84 10 19 10.03V3H5V21H11V17.5H13V21H15.19M15 5H17V7H15V5M9 19H7V17H9V19M9 15H7V13H9V15M9 11H7V9H9V11M9 7H7V5H9V7M11 5H13V7H11V5M11 9H13V11H11V9M11 15V13H13V15H11M18.5 12C16.6 12 15 13.61 15 15.5C15 18.11 18.5 22 18.5 22S22 18.11 22 15.5C22 13.61 20.4 12 18.5 12M18.5 16.81C17.8 16.81 17.3 16.21 17.3 15.61C17.3 14.91 17.9 14.41 18.5 14.41S19.7 15 19.7 15.61C19.8 16.21 19.2 16.81 18.5 16.81Z"/></svg>
